X: 579
T: Fortune
B: jims roots
M:C|
L:1/8
Q: 1/4=100
K:D
V:1 
%N:See an elderly John Rector play the tune
%N:on youtube.com [1]
%N:From a 1926 field recording by John Lomax
%F:http://www.slippery-hill.com/recording/fortune-0
+slide+a2-|"D"abaf fede|"A"fded d2a2-|"D"abaf fed2|"A"A3B A2a2-|
"D"abaf fedf|"G"[dg][dg][dg]a b2a2-|"D"abag "A"ed-c2|"D"[d3f3][df][d2f2]a2-||
"D"abag fedf|"A"edce d2a2-|"D"abag fded|"A"A3A A2a2-|
"D"abag f[df]fd |"G"[d3g3]a b2a2-|"D"abag "A"ed-c2|"D"[d3f3][df][d2f2]||
+slide+f2-|"D"fgfe defd|"A"edce dded|  "D"defd |"A"A3A A3e-|
"D"fgfe de[d2f2]|"G"[d2g3]a g2 A2-|"D"ABA2 "A"AB c2|"D"d6f2-||
"D"fefg fedf|"A"edce ddef-|"D"fgfd  edcB|"A"A3AA3e-|
"D"fgfe de[d2f2]|"G"[d2g3]a g2 A2-|"D"ABA2 "A"AB c2|"D"d6|]
% abcbook-tune_id 6298c25de42f3ff1d4d6d16f


% abcbook-boost 0
% abcbook-tablature 
% abcbook-transpose 
% abcbook-lastupdated 1654178398098
% abcbook-soundfonts 
% abcbook-repeats 1


